X: 42976
T: Willie Macrae's
R: jig
M: 6/8
K: Dmajor
DEA A2F|ABd def|baf fba|fed e2f|dBA F2E|EDE A,B,D|DEA AFA|Bdd d3|
DEA A2F|ABd def|baf fba|fed e2f|dBA F2E|EDE A,B,D|DEA AFA|Bdd d2e|
faa f2e|fba fed|edf e2d|edf edB|ded Bgf|edB BAF|DEA AFA|Bdd d2e|
faa f2e|fba fed|edf e2d|edf edB|ded Bgf|edB BAF|DEA AFA|Bdd d3|

